X:2736
T:Castle Kelly
M:C
L:1/8
Q:220
O:tra
Z:1997 by John Chambers <jc@eddie.mit.edu>
Z:http://ecf-guest.mit.edu/~jc/music/abc
K:ADor
|: A2cA ABcA | GcEG- G4 | A2cA GAcd | ecdB cAA2|!
 A2cA ABcA | GcEG- G4 | A2cA GAcd | ecdB cAA2:|!
 agec d2ed | cAGE G4| agec d2cd | eaag a2ba |!
 gedc d2ed |cAGE G2EG | A2cA GAcd | ecdB cAA2 :|


